usr/share/icons/big-icons/symbolic/actions/notifications-disabled.svg

<svg version="1.1" viewBox="0 0 16 16" xmlns="http://www.w3.org/2000/svg">
    <style id="current-color-scheme" type="text/css">.ColorScheme-Text {
            color:#eff0f1;
        }
        .ColorScheme-NegativeText {
            color:#da4453;
        }</style>
    <circle cx="9.148" cy="2.5" r="0"/>
    <path class="ColorScheme-NegativeText" d="M 2,2.7071118 2.7071065,2 14,13.266998 13.292891,14 Z" fill="currentColor"/>
    <path d="m8 2a1 1 0 0 0-1 1 1 1 0 0 0 0.0136719 0.1699219 3 3 0 0 0-1.2734375 0.8632812l0.7070312 0.7070313a2 2 0 0 1 1.5527344-0.7402344 2 2 0 0 1 2 2c0 1.5854753 0.542693 2.6545091 1.371094 3.6640625l1.335937 1.3359375h0.292969v-1c-1.335506-1.335506-2-2.132154-2-4a3 3 0 0 0-2.015625-2.8300781 1 1 0 0 0 0.015625-0.1699219 1 1 0 0 0-1-1zm-3.0351562 4.671875c-0.149308 1.4098615-0.8014687 2.1647502-1.9648438 3.328125v1h6.2929688l-1-1h-2.2929688-1.6386719c0.673578-0.755548 1.182577-1.5239094 1.4433594-2.4882812l-0.8398437-0.8398438zm1.6230468 5.328125a1.5 1.5 0 0 0-0.0878906 0.5 1.5 1.5 0 0 0 1.5 1.5 1.5 1.5 0 0 0 1.5-1.5 1.5 1.5 0 0 0-0.0878906-0.5h-2.8242188z" class="ColorScheme-Text" fill="currentColor"/>
</svg>

<svg xmlns="http://www.w3.org/2000/svg" viewBox="0 0 16 16">
<style id="current-color-scheme" type="text/css">
.ColorScheme-Text{color:#fcfcfc}.ColorScheme-NegativeText{color:#da4453}
</style>
<path fill="currentColor" d="M2 2.707 2.707 2 14 13.267l-.707.733Z" class="ColorScheme-NegativeText"/>
<path fill="currentColor" d="M8 2a1 1 0 0 0-1 1 1 1 0 0 0 .014.17 3 3 0 0 0-1.274.863l.707.707A2 2 0 0 1 8 4a2 2 0 0 1 2 2c0 1.585.543 2.655 1.371 3.664L12.707 11H13v-1c-1.336-1.336-2-2.132-2-4a3 3 0 0 0-2.016-2.83A1 1 0 0 0 9 3a1 1 0 0 0-1-1M4.965 6.672C4.815 8.082 4.163 8.837 3 10v1h6.293l-1-1H4.361c.674-.756 1.183-1.524 1.444-2.488zM6.588 12a1.5 1.5 0 0 0-.088.5A1.5 1.5 0 0 0 8 14a1.5 1.5 0 0 0 1.5-1.5 1.5 1.5 0 0 0-.088-.5z" class="ColorScheme-Text"/>
</svg>
